X:3
T:Waynesboro
M:C|
L:1/8
R:reel
F:http://www.ibiblio.org/fiddlers/WAT_WAZ.htm 2012-3-21
S:Simon Mayor
N:From a transcription by John Lamancusa, by permission. See http://www.mne.psu.edu/lamancusa/tunes.htm
K:G
d2 |:\
GFGA BABc | dg2e dBAG | EA2A ABAG | AGAB dBAD | GFGA BABc |
dg2e dBAG | EG2G GAGE |1 DB,A,B, G,2D2 :|2 DB,A,B, G,2A2 ||
|:\
B3B  A2A2 | GAGE D2D2 | EA2A ABAG | AGAB dBAD | B3B A2A2 |
GAGE D2D2 | EG2G GAGE |1 DB,A,B, G,2A2 :|2 DB,A,B, G,2 z2 |]
